src/components/Icon/assets/lock-open.svg

<svg width="24" height="24" viewBox="0 0 24 24" fill="none" xmlns="http://www.w3.org/2000/svg">
<path fill-rule="evenodd" clip-rule="evenodd" d="M5.5002 9.0001H16.0002V7C16.0002 4.79066 14.2093 3 12.0002 3C10.7245 3 9.55137 3.59927 8.79996 4.60032L7.20044 3.39968C8.32573 1.90053 10.0886 1 12.0002 1C15.3138 1 18.0002 3.68603 18.0002 7V9.0001H18.5002C19.3285 9.0001 20.0002 9.67181 20.0002 10.5001V20.5001C20.0002 21.3284 19.3285 22.0001 18.5002 22.0001H5.5002C4.67191 22.0001 4.0002 21.3284 4.0002 20.5001V10.5001C4.0002 9.67181 4.67191 9.0001 5.5002 9.0001ZM18.0002 11.0001V20.0001H6.0002V11.0001H18.0002ZM9.4982 14.5001H14.4982V16.5001H9.4982V14.5001Z" fill="#65676A"/>
</svg>

<svg xmlns="http://www.w3.org/2000/svg" width="24" height="24" viewBox="0 0 24 24">
    <path fill="#65676A" fill-rule="evenodd" d="M12 1c3.314 0 6 2.686 6 6v2h.5c.828 0 1.5.672 1.5 1.5v10c0 .828-.672 1.5-1.5 1.5h-13c-.828 0-1.5-.672-1.5-1.5v-10C4 9.672 4.672 9 5.5 9H16V7c0-2.142-1.684-3.891-3.8-3.995L12 3c-1.275 0-2.449.6-3.2 1.6L7.2 3.4C8.326 1.9 10.09 1 12 1zm6 10H6v9h12v-9zm-3.502 3.5v2h-5v-2h5z"/>
</svg>
